X:1
T: Joy Gae Wee My Love
C:
R:Jig
Q:180
K:A
M:6/8
L:1/16
|:=g2|=g2f2A2 A2e2A2|e2d2B2 B2d2=g2|=g2f2A2 A2e2A2|e2d2A2 A2e2=g2|
=g2f2A2 A2e2A2|e2d2B2 B2d2=g2|=g2f2d2 f2e2B2|d4A2 A4:|
|:=g2|f2=g2a2 a2e2g2|f2e2d2 B2d2=g2|f2=g2a2 a2e2g2|f2=g2a2 a2A2g2|
f2=g2a2 a2e2g2|f2e2d2 B2d2=g2|=g2f2d2 f2e2B2|d4A2 A4:|
